T: Behind The Bush In The Garden
M: 6/8
L: 1/8
K: Amin
| c2A AGE c2A AGE | G2G G2E G3 E2E |A2B c2d e2e e2d |1 c2A BAG A3 A2B:|2 c2A BAG A3 A2E ||A2B c2d e2e e2d |1 c2A BAG A3 A2E:|2 c2A BAG A3 A2B||
